X:1
T:Morning Mood (Peer Gynt)
C:Edvard Grieg
O:Peer Gynt Suite No.1, Op.46
M:6/8
L:1/8
Q:3/8=84
K:E
% Gently, with pastoral character (pp rising to mp)
E | G3 A B2 | G6 | B3 c B2 | G6 |
G3 A B2 | G3 E2 F | G3 E3 | E6 |
B3 A G2 | A3 G F2 | G3 F E2 | E6 |
G3 A B2 | B3 c B2 | G3 E2 F | E6 |]
